src/assets/Illustrations/planet.svg

<svg xmlns="http://www.w3.org/2000/svg" style="isolation:isolate" viewBox="542 173 724 630.013" width="724pt" height="840.017"><defs><clipPath id="a"><path d="M542 173h724v630.013H542z"/></clipPath></defs><g clip-path="url(#a)"><path d="M671.615 269.599c26.635 0 48.299-21.674 48.299-48.3 0-26.635-21.673-48.299-48.299-48.299s-48.3 21.655-48.3 48.299c0 26.626 21.665 48.3 48.3 48.3zm0-81.204c18.135 0 32.904 14.76 32.904 32.895 0 18.136-14.769 32.895-32.904 32.895-18.136 0-32.895-14.759-32.895-32.895 0-18.126 14.759-32.895 32.895-32.895z" fill="#00BBFB"/><linearGradient id="b" x1=".205" y1=".762" x2=".748" y2=".31" gradientTransform="matrix(724 0 0 610 542 193.014)" gradientUnits="userSpaceOnUse"><stop offset="2.174%" stop-color="#7e4fae"/><stop offset="98.261%" stop-color="#d33b69"/></linearGradient><path d="M1167.603 673.753a287.642 287.642 0 0010.505-17.76c35.761-65.969 43.696-141.925 22.327-213.867-21.36-71.943-69.462-131.25-135.431-167.011-51.595-27.978-109.209-38.743-167.1-31.802-3.609-12.986-10.962-24.629-21.405-33.621-13.944-11.992-31.668-17.867-50.072-16.478-18.342 1.37-35.063 9.806-47.055 23.751-12.001 13.935-17.858 31.722-16.487 50.063.68 9.028 3.08 17.661 6.994 25.534-.806.232-1.603.528-2.319 1.038-34.821 24.889-62.889 56.718-83.425 94.611-3.296 6.081-6.269 12.269-9.09 18.512-119.902-50.762-127.425-37.042-131.473-29.591-3.314 6.117-12.252 22.766 109.638 102.94-6.117 40.292-3.358 81.776 8.598 122.015 21.36 71.934 69.453 131.249 135.432 167.019 42.442 23.008 88.233 33.916 133.425 33.907 68.513 0 135.61-25.103 187.394-71.163 6.484 2.812 13.013 5.669 19.192 8.257 65.79 27.575 96.509 35.071 111.492 35.071 11.348 0 13.676-4.298 15.378-7.433 4.021-7.46 11.392-21.261-96.518-93.992zm-376.561-446.74c9.314-10.828 22.291-17.374 36.54-18.44a51.17 51.17 0 014.066-.152c12.78 0 25.014 4.522 34.803 12.95 8.956 7.702 14.768 17.966 17.186 29.322-.107.725-.233 1.459-.116 2.221.143.967.501 1.827.958 2.633.099.797.349 1.558.412 2.364 1.066 14.249-3.484 28.05-12.798 38.869-9.314 10.828-22.291 17.374-36.54 18.44-14.231 1.057-28.05-3.475-38.869-12.798-10.827-9.314-17.374-22.291-18.431-36.531-1.084-14.249 3.466-28.059 12.789-38.878zm-134.76 236.401c-63.444-42.308-92.694-68.235-97.942-78.168 6.851-.304 31.624 2.239 110.713 35.69-5.391 13.89-9.681 28.077-12.771 42.478zm148.274 292.142c-62.351-33.8-107.82-89.864-128.007-157.866-10.603-35.689-13.496-72.427-9.027-108.295 19.085 12.296 41.072 25.99 66.265 41.197-.959 4.003-1.594 8.123-1.594 12.404 0 29.519 24.019 53.539 53.538 53.539 14.061 0 26.769-5.562 36.325-14.455 18.79 10.63 35.358 19.792 58.895 32.564 79.788 43.248 156.836 81.579 221.417 110.319-81.123 68.315-199.09 84.105-297.812 30.593zm-56.977-212.56c0-21.028 17.106-38.134 38.134-38.134 21.029 0 38.135 17.115 38.135 38.134 0 21.029-17.106 38.134-38.135 38.134-21.028 0-38.134-17.105-38.134-38.134zm367.202 170.861c-59.262-26.169-135.817-63.605-226.496-112.755-22.577-12.243-38.689-21.136-56.538-31.229 4.648-7.926 7.505-17.043 7.505-26.877 0-29.519-24.02-53.538-53.539-53.538-19.694 0-36.746 10.809-46.042 26.688-26.375-15.959-49.464-30.477-69.525-43.57 3.43-17.966 8.705-35.645 15.888-52.76v-.009c.009 0 .009-.009.009-.009a271.692 271.692 0 0111.616-24.243c19.416-35.815 45.935-65.898 78.839-89.416.501-.367.832-.86 1.218-1.308a68.819 68.819 0 008.893 9.261c12.61 10.854 28.363 16.685 44.824 16.685 1.738 0 3.493-.063 5.248-.198 18.342-1.37 35.063-9.806 47.064-23.751 11.616-13.487 17.401-30.584 16.532-48.299 54.542-6.448 108.77 3.779 157.374 30.128 62.36 33.799 107.82 89.864 128.007 157.866 20.196 67.993 12.69 139.775-21.109 202.135a267.601 267.601 0 01-13.882 22.793c-.036.054-.098.081-.143.143-.045.072-.045.144-.081.206-10.532 15.476-22.533 29.492-35.662 42.057zm15.198 6.619c10.416-10.425 20.07-21.781 28.892-34.015 71.441 48.174 87.051 67.501 90.383 73.367-12.529 1.666-54.049-11.276-119.275-39.352z" fill="url(#b)"/><path d="M1163.617 546.981c-1.549 13.587-3.869 27.038-6.734 40.41-1.46 6.824 9.009 9.735 10.478 2.892 3.072-14.32 5.463-28.739 7.12-43.293.788-6.949-10.084-6.887-10.864-.009zm12.637-28.175c.036-54.076-15.377-106.334-54.855-144.737-5.015-4.881-12.708 2.795-7.684 7.685 37.543 36.531 51.712 85.726 51.667 137.052-.009 6.995 10.863 7.004 10.872 0zM815.751 295.813c5.804 3.94 11.249-5.472 5.49-9.386-13.263-8.983-17.84-25.677-12.269-40.436 2.472-6.556-8.034-9.377-10.479-2.893-7.361 19.479.224 41.161 17.258 52.715z" fill="#F3665B"/><path d="M788.507 566.702c6.995.305 6.977-10.559 0-10.872-8.212-.358-17.186-9.198-16.04-17.706.923-6.842-9.547-9.798-10.478-2.893-2.123 15.691 10.55 30.773 26.518 31.471z" fill="#00A58D"/><circle vector-effect="non-scaling-stroke" cx="630.794" cy="301.549" r="10.187" fill="#00BBFB"/><path d="M734.709 287.278c5.625 0 10.192-4.568 10.192-10.192 0-5.625-4.567-10.183-10.192-10.183-5.624 0-10.192 4.567-10.192 10.183.009 5.633 4.568 10.192 10.192 10.192z" fill="#00BBFB"/><path d="M913.353 215.962c5.624 0 10.192-4.568 10.192-10.192 0-5.625-4.568-10.183-10.192-10.183-5.624 0-10.192 4.567-10.192 10.183 0 5.633 4.568 10.192 10.192 10.192zM582.566 497.849c-5.624 0-10.192 4.568-10.192 10.192 0 5.624 4.568 10.183 10.192 10.183 5.624 0 10.192-4.568 10.192-10.183 0-5.633-4.568-10.192-10.192-10.192zm246.566-93.061c-5.625 0-10.192 4.568-10.192 10.192 0 5.624 4.567 10.183 10.192 10.183 5.624 0 10.191-4.568 10.191-10.183-.009-5.624-4.567-10.192-10.191-10.192zm275.77 250.641c-5.624 0-10.191 4.567-10.191 10.192 0 5.624 4.567 10.183 10.191 10.183 5.625 0 10.192-4.568 10.192-10.183-.009-5.625-4.567-10.192-10.192-10.192z" fill="#FFC754"/><path d="M936.916 334.332a5.39 5.39 0 00-5.087 5.678l5.693 103.182 7.75 140.473a5.384 5.384 0 005.374 5.096c.098 0 .206-.009.304-.009a5.396 5.396 0 005.087-5.678l-13.443-243.655c-.152-2.973-2.678-5.168-5.678-5.087zm44.287-37.722a5.397 5.397 0 00-4.952 5.803l18.753 238.577a5.397 5.397 0 005.374 4.971c.143 0 .286-.009.43-.009a5.398 5.398 0 004.952-5.804l-18.753-238.586c-.242-2.964-2.857-5.122-5.804-4.952zm52.759 74.271c-2.964.233-5.194 2.812-4.97 5.786l18.225 239.777a5.39 5.39 0 005.374 4.979c.143 0 .277-.009.412-.018a5.4 5.4 0 004.97-5.785l-18.216-239.777c-.233-2.965-2.866-5.204-5.795-4.962z" fill="#FF9650"/></g></svg>

<?xml version="1.0" encoding="UTF-8" standalone="no"?><!-- Generator: Gravit.io --><svg xmlns="http://www.w3.org/2000/svg" xmlns:xlink="http://www.w3.org/1999/xlink" style="isolation:isolate" viewBox="542 173 724 630.013" width="724pt" height="630.013pt"><defs><clipPath id="_clipPath_xr4AK11cgavzm2gIVM4fEMLJfVjjRZ4u"><rect x="542" y="173" width="724" height="630.013"/></clipPath></defs><g clip-path="url(#_clipPath_xr4AK11cgavzm2gIVM4fEMLJfVjjRZ4u)"><g><g><g><g><path d=" M 671.615 269.599 C 698.25 269.599 719.914 247.925 719.914 221.299 C 719.914 194.664 698.241 173 671.615 173 C 644.989 173 623.315 194.655 623.315 221.299 C 623.315 247.925 644.98 269.599 671.615 269.599 Z  M 671.615 188.395 C 689.75 188.395 704.519 203.155 704.519 221.29 C 704.519 239.426 689.75 254.185 671.615 254.185 C 653.479 254.185 638.72 239.426 638.72 221.29 C 638.72 203.164 653.479 188.395 671.615 188.395 Z " fill="rgb(0,187,251)"/><linearGradient id="_lgradient_7" x1="0.20457803772296998" y1="0.7622291169954746" x2="0.7484081919691138" y2="0.31014836735280826" gradientTransform="matrix(724,0,0,610,542,193.014)" gradientUnits="userSpaceOnUse"><stop offset="2.1739130434782608%" stop-opacity="1" style="stop-color:rgb(126,79,174)"/><stop offset="98.26086956521739%" stop-opacity="1" style="stop-color:rgb(211,59,105)"/></linearGradient><path d=" M 1167.603 673.753 C 1171.284 668.003 1174.794 662.092 1178.108 655.993 C 1213.869 590.024 1221.804 514.068 1200.435 442.126 C 1179.075 370.183 1130.973 310.876 1065.004 275.115 C 1013.409 247.137 955.795 236.372 897.904 243.313 C 894.295 230.327 886.942 218.684 876.499 209.692 C 862.555 197.7 844.831 191.825 826.427 193.214 C 808.085 194.584 791.364 203.02 779.372 216.965 C 767.371 230.9 761.514 248.687 762.885 267.028 C 763.565 276.056 765.965 284.689 769.879 292.562 C 769.073 292.794 768.276 293.09 767.56 293.6 C 732.739 318.489 704.671 350.318 684.135 388.211 C 680.839 394.292 677.866 400.48 675.045 406.723 C 555.143 355.961 547.62 369.681 543.572 377.132 C 540.258 383.249 531.32 399.898 653.21 480.072 C 647.093 520.364 649.852 561.848 661.808 602.087 C 683.168 674.021 731.261 733.336 797.24 769.106 C 839.682 792.114 885.473 803.022 930.665 803.013 C 999.178 803.013 1066.275 777.91 1118.059 731.85 C 1124.543 734.662 1131.072 737.519 1137.251 740.107 C 1203.041 767.682 1233.76 775.178 1248.743 775.178 C 1260.091 775.178 1262.419 770.88 1264.121 767.745 C 1268.142 760.285 1275.513 746.484 1167.603 673.753 Z  M 791.042 227.013 C 800.356 216.185 813.333 209.639 827.582 208.573 C 828.935 208.465 830.296 208.421 831.648 208.421 C 844.428 208.421 856.662 212.943 866.451 221.371 C 875.407 229.073 881.219 239.337 883.637 250.693 C 883.53 251.418 883.404 252.152 883.521 252.914 C 883.664 253.881 884.022 254.741 884.479 255.547 C 884.578 256.344 884.828 257.105 884.891 257.911 C 885.957 272.16 881.407 285.961 872.093 296.78 C 862.779 307.608 849.802 314.154 835.553 315.22 C 821.322 316.277 807.503 311.745 796.684 302.422 C 785.857 293.108 779.31 280.131 778.253 265.891 C 777.169 251.642 781.719 237.832 791.042 227.013 Z  M 656.282 463.414 C 592.838 421.106 563.588 395.179 558.34 385.246 C 565.191 384.942 589.964 387.485 669.053 420.936 C 663.662 434.826 659.372 449.013 656.282 463.414 Z  M 804.556 755.556 C 742.205 721.756 696.736 665.692 676.549 597.69 C 665.946 562.001 663.053 525.263 667.522 489.395 C 686.607 501.691 708.594 515.385 733.787 530.592 C 732.828 534.595 732.193 538.715 732.193 542.996 C 732.193 572.515 756.212 596.535 785.731 596.535 C 799.792 596.535 812.5 590.973 822.056 582.08 C 840.846 592.71 857.414 601.872 880.951 614.644 C 960.739 657.892 1037.787 696.223 1102.368 724.963 C 1021.245 793.278 903.278 809.068 804.556 755.556 Z  M 747.579 542.996 C 747.579 521.968 764.685 504.862 785.713 504.862 C 806.742 504.862 823.848 521.977 823.848 542.996 C 823.848 564.025 806.742 581.13 785.713 581.13 C 764.685 581.13 747.579 564.025 747.579 542.996 Z  M 1114.781 713.857 C 1055.519 687.688 978.964 650.252 888.285 601.102 C 865.708 588.859 849.596 579.966 831.747 569.873 C 836.395 561.947 839.252 552.83 839.252 542.996 C 839.252 513.477 815.232 489.458 785.713 489.458 C 766.019 489.458 748.967 500.267 739.671 516.146 C 713.296 500.187 690.207 485.669 670.146 472.576 C 673.576 454.61 678.851 436.931 686.034 419.816 L 686.034 419.807 C 686.043 419.807 686.043 419.798 686.043 419.798 C 689.491 411.586 693.36 403.49 697.659 395.555 C 717.075 359.74 743.594 329.657 776.498 306.139 C 776.999 305.772 777.33 305.279 777.716 304.831 C 780.367 308.154 783.322 311.262 786.609 314.092 C 799.219 324.946 814.972 330.777 831.433 330.777 C 833.171 330.777 834.926 330.714 836.681 330.579 C 855.023 329.209 871.744 320.773 883.745 306.828 C 895.361 293.341 901.146 276.244 900.277 258.529 C 954.819 252.081 1009.047 262.308 1057.651 288.657 C 1120.011 322.456 1165.471 378.521 1185.658 446.523 C 1205.854 514.516 1198.348 586.298 1164.549 648.658 C 1160.259 656.566 1155.62 664.161 1150.667 671.451 C 1150.631 671.505 1150.569 671.532 1150.524 671.594 C 1150.479 671.666 1150.479 671.738 1150.443 671.8 C 1139.911 687.276 1127.91 701.292 1114.781 713.857 Z  M 1129.979 720.476 C 1140.395 710.051 1150.049 698.695 1158.871 686.461 C 1230.312 734.635 1245.922 753.962 1249.254 759.828 C 1236.725 761.494 1195.205 748.552 1129.979 720.476 Z " fill="url(#_lgradient_7)"/><path d=" M 1163.617 546.981 C 1162.068 560.568 1159.748 574.019 1156.883 587.391 C 1155.423 594.215 1165.892 597.126 1167.361 590.283 C 1170.433 575.963 1172.824 561.544 1174.481 546.99 C 1175.269 540.041 1164.397 540.103 1163.617 546.981 Z " fill="rgb(243,102,91)"/><path d=" M 1176.254 518.806 C 1176.29 464.73 1160.877 412.472 1121.399 374.069 C 1116.384 369.188 1108.691 376.864 1113.715 381.754 C 1151.258 418.285 1165.427 467.48 1165.382 518.806 C 1165.373 525.801 1176.245 525.81 1176.254 518.806 Z " fill="rgb(243,102,91)"/><path d=" M 815.751 295.813 C 821.555 299.753 827 290.341 821.241 286.427 C 807.978 277.444 803.401 260.75 808.972 245.991 C 811.444 239.435 800.938 236.614 798.493 243.098 C 791.132 262.577 798.717 284.259 815.751 295.813 Z " fill="rgb(243,102,91)"/><path d=" M 788.507 566.702 C 795.502 567.007 795.484 556.143 788.507 555.83 C 780.295 555.472 771.321 546.632 772.467 538.124 C 773.39 531.282 762.92 528.326 761.989 535.231 C 759.866 550.922 772.539 566.004 788.507 566.702 Z " fill="rgb(0,165,141)"/><circle vector-effect="non-scaling-stroke" cx="630.7936445188207" cy="301.5488619941683" r="10.187364093661245" fill="rgb(0,187,251)"/><path d=" M 734.709 287.278 C 740.334 287.278 744.901 282.71 744.901 277.086 C 744.901 271.461 740.334 266.903 734.709 266.903 C 729.085 266.903 724.517 271.47 724.517 277.086 C 724.526 282.719 729.085 287.278 734.709 287.278 Z " fill="rgb(0,187,251)"/><path d=" M 913.353 215.962 C 918.977 215.962 923.545 211.394 923.545 205.77 C 923.545 200.145 918.977 195.587 913.353 195.587 C 907.729 195.587 903.161 200.154 903.161 205.77 C 903.161 211.403 907.729 215.962 913.353 215.962 Z " fill="rgb(255,199,84)"/><path d=" M 582.566 497.849 C 576.942 497.849 572.374 502.417 572.374 508.041 C 572.374 513.665 576.942 518.224 582.566 518.224 C 588.19 518.224 592.758 513.656 592.758 508.041 C 592.758 502.408 588.19 497.849 582.566 497.849 Z " fill="rgb(255,199,84)"/><path d=" M 829.132 404.788 C 823.507 404.788 818.94 409.356 818.94 414.98 C 818.94 420.604 823.507 425.163 829.132 425.163 C 834.756 425.163 839.323 420.595 839.323 414.98 C 839.314 409.356 834.756 404.788 829.132 404.788 Z " fill="rgb(255,199,84)"/><path d=" M 1104.902 655.429 C 1099.278 655.429 1094.711 659.996 1094.711 665.621 C 1094.711 671.245 1099.278 675.804 1104.902 675.804 C 1110.527 675.804 1115.094 671.236 1115.094 665.621 C 1115.085 659.996 1110.527 655.429 1104.902 655.429 Z " fill="rgb(255,199,84)"/><path d=" M 936.916 334.332 C 933.943 334.493 931.668 337.037 931.829 340.01 L 937.522 443.192 L 945.272 583.665 C 945.424 586.54 947.807 588.761 950.646 588.761 C 950.744 588.761 950.852 588.752 950.95 588.752 C 953.914 588.591 956.198 586.047 956.037 583.074 L 942.594 339.419 C 942.442 336.446 939.916 334.251 936.916 334.332 Z " fill="rgb(255,150,80)"/><path d=" M 981.203 296.61 C 978.239 296.843 976.018 299.44 976.251 302.413 L 995.004 540.99 C 995.228 543.811 997.584 545.961 1000.378 545.961 C 1000.521 545.961 1000.664 545.952 1000.808 545.952 C 1003.772 545.719 1005.993 543.121 1005.76 540.148 L 987.007 301.562 C 986.765 298.598 984.15 296.44 981.203 296.61 Z " fill="rgb(255,150,80)"/><path d=" M 1033.962 370.881 C 1030.998 371.114 1028.768 373.693 1028.992 376.667 L 1047.217 616.444 C 1047.432 619.274 1049.797 621.423 1052.591 621.423 C 1052.734 621.423 1052.868 621.414 1053.003 621.405 C 1055.967 621.181 1058.197 618.584 1057.973 615.62 L 1039.757 375.843 C 1039.524 372.878 1036.891 370.639 1033.962 370.881 Z " fill="rgb(255,150,80)"/></g></g></g></g></g></svg>
